;FLAVOR:Marlin
;TIME:367
;Filament used: 13.2348m
;Layer height: 2.5
;MINX:303.33
;MINY:438.623
;MINZ:2.5
;MAXX:601.127
;MAXY:756.537
;MAXZ:25
;TARGET_MACHINE.NAME:Asterix
;Generated with Cura_SteamEngine 5.6.0
M104 S265
M105
M109 S265
M82 ;absolute extrusion mode

G92 E0
G92 E0
G1 F1500 E-6.5
;LAYER_COUNT:10
;LAYER:0
M107
;MESH:Cube(8)
G0 F3600 X303.33 Y444.855 Z2.5
;TYPE:FILL
G1 F1500 E0
G1 F1800 X303.33 Y464.855 E39.18866
G0 F3600 X303.33 Y461.655
G0 X308.33 Y461.655
G0 X308.33 Y464.855
G1 F1800 X308.33 Y444.855 E78.37732
G0 F3600 X308.33 Y448.055
G0 X313.33 Y448.055
G0 X313.33 Y444.855
G1 F1800 X313.33 Y464.855 E117.56598
G1 X313.33 Y466.105
G1 F1500 E111.06598
;MESH:Cube(11)
G0 F3600 X313.33 Y461.655
G0 X315.61 Y456.673
G0 X318.995 Y456.673
G0 X424.335 Y456.673
G0 X427.72 Y456.673
G0 X430 Y456.673
G0 X430 Y459.873
G1 F1500 E117.56598
G1 F1800 X430 Y439.873 E156.75464
G0 F3600 X430 Y443.073
G0 X435 Y443.073
G0 X435 Y439.873
G1 F1800 X435 Y459.873 E195.9433
G0 F3600 X435 Y456.673
G0 X440 Y456.673
G0 X440 Y459.873
G1 F1800 X440 Y439.873 E235.13196
G1 X440 Y438.623
G1 F1500 E228.63196
;MESH:Cube(1)
G0 F3600 X440 Y443.073
G0 X442.286 Y457.159
G0 X445.665 Y457.159
G0 X554.194 Y494.935
G0 X557.573 Y494.935
G0 X559.859 Y495.421
G0 X559.859 Y492.221
G1 F1500 E235.13196
G1 F1800 X559.859 Y512.221 E274.32062
G0 F3600 X559.859 Y509.021
G0 X564.859 Y509.021
G0 X564.859 Y512.221
G1 F1800 X564.859 Y492.221 E313.50928
G0 F3600 X564.859 Y495.421
G0 X569.859 Y495.421
G0 X569.859 Y492.221
G1 F1800 X569.859 Y512.221 E352.69793
G1 X569.859 Y513.471
G1 F1500 E346.19793
;MESH:Cube(5)
G0 F3600 X569.859 Y509.021
G0 X557.573 Y509.507
G0 X557.573 Y512.886
G0 X546.07 Y593.009
G0 X546.07 Y596.388
G0 X543.784 Y596.874
G0 X543.784 Y593.674
G1 F1500 E352.69793
G1 F1800 X543.784 Y613.674 E391.88659
G0 F3600 X543.784 Y610.474
G0 X538.784 Y610.474
G0 X538.784 Y613.674
G1 F1800 X538.784 Y593.674 E431.07525
G0 F3600 X538.784 Y596.874
G0 X533.784 Y596.874
G0 X533.784 Y593.674
G1 F1800 X533.784 Y613.674 E470.26391
G1 X533.784 Y614.924
G1 F1500 E463.76391
;MESH:Cube
G0 F3600 X533.784 Y610.474
G0 X531.498 Y610.96
G0 X528.119 Y610.96
G0 X506.805 Y634.609
G0 X503.426 Y634.609
G0 X501.14 Y635.095
G0 X501.14 Y631.895
G1 F1500 E470.26391
G1 F1800 X501.14 Y651.895 E509.45257
G0 F3600 X501.14 Y648.695
G0 X496.14 Y648.695
G0 X496.14 Y651.895
G1 F1800 X496.14 Y631.895 E548.64123
G0 F3600 X496.14 Y635.095
G0 X491.14 Y635.095
G0 X491.14 Y631.895
G1 F1800 X491.14 Y651.895 E587.82989
G1 X491.14 Y653.145
G1 F1500 E581.32989
;MESH:Cube(4)
G0 F3600 X491.14 Y648.695
G0 X488.854 Y634.609
G0 X485.475 Y634.609
G0 X448.986 Y600.644
G0 X448.986 Y597.265
G0 X446.7 Y596.779
G0 X446.7 Y599.979
G1 F1500 E587.82989
G1 F1800 X446.7 Y579.979 E627.01855
G0 F3600 X446.7 Y583.179
G0 X441.7 Y583.179
G0 X441.7 Y579.979
G1 F1800 X441.7 Y599.979 E666.20721
G0 F3600 X441.7 Y596.779
G0 X436.7 Y596.779
G0 X436.7 Y599.979
G1 F1800 X436.7 Y579.979 E705.39587
G1 X436.7 Y578.729
G1 F1500 E698.89587
;MESH:Cube(7)
G0 F3600 X436.7 Y583.179
G0 X434.414 Y597.265
G0 X434.414 Y600.644
G0 X387.67 Y713.768
G0 X387.67 Y717.147
G0 X385.384 Y717.633
G0 X385.384 Y714.433
G1 F1500 E705.39587
G1 F1800 X385.384 Y734.433 E744.58453
G0 F3600 X385.384 Y731.233
G0 X380.384 Y731.233
G0 X380.384 Y734.433
G1 F1800 X380.384 Y714.433 E783.77319
G0 F3600 X380.384 Y717.633
G0 X375.384 Y717.633
G0 X375.384 Y714.433
G1 F1800 X375.384 Y734.433 E822.96185
G1 X375.384 Y735.683
G1 F1500 E816.46185
;MESH:Cube(12)
G0 F3600 X375.384 Y731.233
G0 X373.098 Y717.147
G0 X373.098 Y713.768
G0 X350.642 Y645.681
G0 X350.642 Y642.302
G0 X348.356 Y641.816
G0 X348.356 Y645.016
G1 F1500 E822.96185
G1 F1800 X348.356 Y625.016 E862.15051
G0 F3600 X348.356 Y628.216
G0 X343.356 Y628.216
G0 X343.356 Y625.016
G1 F1800 X343.356 Y645.016 E901.33917
G0 F3600 X343.356 Y641.816
G0 X338.356 Y641.816
G0 X338.356 Y645.016
G1 F1800 X338.356 Y625.016 E940.52783
G1 X338.356 Y623.766
G1 F1500 E934.02783
;MESH:Cube(10)
G0 F3600 X338.356 Y628.216
G0 X350.642 Y642.302
G0 X354.021 Y642.302
G0 X523.866 Y721.952
G0 X527.245 Y721.952
G0 X529.531 Y722.438
G0 X529.531 Y719.238
G1 F1500 E940.52783
G1 F1800 X529.531 Y739.238 E979.71649
G0 F3600 X529.531 Y736.038
G0 X534.531 Y736.038
G0 X534.531 Y739.238
G1 F1800 X534.531 Y719.163 E1019.0521
G0 F3600 X534.531 Y721.699
G0 X539.531 Y721.699
G0 X539.531 Y719.163
G1 F1800 X539.531 Y739.313 E1058.53468
G0 F3600 X544.531 Y739.313
G1 F1800 X544.531 Y719.163 E1098.01725
G1 X544.531 Y717.913
;MESH:Cube(6)
G1 X545.184 Y718.499
G1 X545.184 Y738.574 E1137.35287
G0 F3600 X540.184 Y738.574
G1 F1800 X540.184 Y718.499 E1176.68849
G0 F3600 X540.184 Y721.699
G0 X535.184 Y721.699
G0 X535.184 Y718.499
G1 F1800 X535.184 Y738.574 E1216.0241
G0 F3600 X535.184 Y736.038
G0 X530.184 Y736.038
G0 X530.184 Y738.574
G1 F1800 X530.184 Y719.218 E1253.95089
G1 X530.184 Y717.968
G0 F3600 X530.184 Y722.438
G0 X532.968 Y722.358
G0 X547.014 Y721.669
G0 X550.184 Y718.499
G1 F1800 X550.184 Y738.574 E1293.2865
G1 X550.184 Y739.824
;MESH:Cube(3)
G0 F3600 X547.476 Y738.015
G0 X547.47 Y735.86
G0 X549.705 Y735.212
G1 F1800 X549.705 Y755.287 E1332.62212
G0 F3600 X549.705 Y752.087
G0 X544.705 Y752.087
G0 X544.705 Y755.287
G1 F1800 X544.705 Y735.212 E1371.95774
G0 F3600 X541.54 Y735.467
G0 X539.705 Y735.574
G0 X539.705 Y735.212
G1 F1800 X539.705 Y755.287 E1411.29335
G1 X539.705 Y756.537
G0 F3600 X539.705 Y752.087
G0 X537.905 Y739.258
G0 X534.705 Y739.258
G1 F1800 X534.705 Y735.212 E1419.22122
G1 F1500 E1412.72122
;MESH:Cube(9)
G0 F3600 X534.705 Y735.974
G0 X539.901 Y735.902
G0 X541.934 Y735.902
G0 X541.933 Y733.553
G0 X547.47 Y721.213
G0 X547.47 Y717.834
G0 X585.462 Y679.786
G0 X588.841 Y679.786
G0 X591.127 Y679.3
G0 X591.127 Y682.5
G1 F1500 E1419.22122
G1 F1800 X591.127 Y662.5 E1458.40988
G0 F3600 X591.127 Y665.7
G0 X596.127 Y665.7
G0 X596.127 Y662.5
G1 F1800 X596.127 Y682.5 E1497.59854
G0 F3600 X596.127 Y679.3
G0 X601.127 Y679.3
G0 X601.127 Y682.5
G1 F1800 X601.127 Y662.5 E1536.7872
G1 X601.127 Y661.25
G1 F1500 E1530.2872
;MESH:NONMESH
G0 F600 X601.127 Y661.25 Z5
G0 F3600 X601.127 Y665.7
G0 X588.841 Y665.214
G0 X585.462 Y665.214
G0 X318.995 Y462.141
G0 X315.616 Y462.141
G0 X303.33 Y448.055
G0 X303.33 Y444.855
;TIME_ELAPSED:74.263642
;LAYER:1
;TYPE:FILL
;MESH:Cube(8)
G1 F1500 E1536.7872
G1 F2700 X303.33 Y464.855 E1575.97586
G0 F5400 X303.33 Y461.655
G0 X308.33 Y461.655
G0 X308.33 Y464.855
G92 E0
G1 F2700 X308.33 Y444.855 E39.18866
G0 F5400 X308.33 Y448.055
G0 X313.33 Y448.055
G0 X313.33 Y444.855
G1 F2700 X313.33 Y464.855 E78.37732
G1 X313.33 Y466.105
G1 F1500 E71.87732
;MESH:Cube(11)
G0 F5400 X313.33 Y461.655
G0 X315.61 Y456.673
G0 X318.995 Y456.673
G0 X424.335 Y456.673
G0 X427.72 Y456.673
G0 X430 Y456.673
G0 X430 Y459.873
G1 F1500 E78.37732
G1 F2700 X430 Y439.873 E117.56598
G0 F5400 X430 Y443.073
G0 X435 Y443.073
G0 X435 Y439.873
G1 F2700 X435 Y459.873 E156.75464
G0 F5400 X435 Y456.673
G0 X440 Y456.673
G0 X440 Y459.873
G1 F2700 X440 Y439.873 E195.9433
G1 X440 Y438.623
G1 F1500 E189.4433
;MESH:Cube(1)
G0 F5400 X440 Y443.073
G0 X442.286 Y457.159
G0 X445.665 Y457.159
G0 X554.194 Y494.935
G0 X557.573 Y494.935
G0 X559.859 Y495.421
G0 X559.859 Y492.221
G1 F1500 E195.9433
G1 F2700 X559.859 Y512.221 E235.13196
G0 F5400 X559.859 Y509.021
G0 X564.859 Y509.021
G0 X564.859 Y512.221
G1 F2700 X564.859 Y492.221 E274.32062
G0 F5400 X564.859 Y495.421
G0 X569.859 Y495.421
G0 X569.859 Y492.221
G1 F2700 X569.859 Y512.221 E313.50928
G1 X569.859 Y513.471
G1 F1500 E307.00928
;MESH:Cube(5)
G0 F5400 X569.859 Y509.021
G0 X557.573 Y509.507
G0 X557.573 Y512.886
G0 X546.07 Y593.009
G0 X546.07 Y596.388
G0 X543.784 Y596.874
G0 X543.784 Y593.674
G1 F1500 E313.50928
G1 F2700 X543.784 Y613.674 E352.69793
G0 F5400 X543.784 Y610.474
G0 X538.784 Y610.474
G0 X538.784 Y613.674
G1 F2700 X538.784 Y593.674 E391.88659
G0 F5400 X538.784 Y596.874
G0 X533.784 Y596.874
G0 X533.784 Y593.674
G1 F2700 X533.784 Y613.674 E431.07525
G1 X533.784 Y614.924
G1 F1500 E424.57525
;MESH:Cube
G0 F5400 X533.784 Y610.474
G0 X531.498 Y610.96
G0 X528.119 Y610.96
G0 X506.805 Y634.609
G0 X503.426 Y634.609
G0 X501.14 Y635.095
G0 X501.14 Y631.895
G1 F1500 E431.07525
G1 F2700 X501.14 Y651.895 E470.26391
G0 F5400 X501.14 Y648.695
G0 X496.14 Y648.695
G0 X496.14 Y651.895
G1 F2700 X496.14 Y631.895 E509.45257
G0 F5400 X496.14 Y635.095
G0 X491.14 Y635.095
G0 X491.14 Y631.895
G1 F2700 X491.14 Y651.895 E548.64123
G1 X491.14 Y653.145
G1 F1500 E542.14123
;MESH:Cube(4)
G0 F5400 X491.14 Y648.695
G0 X488.854 Y634.609
G0 X485.475 Y634.609
G0 X448.986 Y600.644
G0 X448.986 Y597.265
G0 X446.7 Y596.779
G0 X446.7 Y599.979
G1 F1500 E548.64123
G1 F2700 X446.7 Y579.979 E587.82989
G0 F5400 X446.7 Y583.179
G0 X441.7 Y583.179
G0 X441.7 Y579.979
G1 F2700 X441.7 Y599.979 E627.01855
G0 F5400 X441.7 Y596.779
G0 X436.7 Y596.779
G0 X436.7 Y599.979
G1 F2700 X436.7 Y579.979 E666.20721
G1 X436.7 Y578.729
G1 F1500 E659.70721
;MESH:Cube(7)
G0 F5400 X436.7 Y583.179
G0 X434.414 Y597.265
G0 X434.414 Y600.644
G0 X387.67 Y713.768
G0 X387.67 Y717.147
G0 X385.384 Y717.633
G0 X385.384 Y714.433
G1 F1500 E666.20721
G1 F2700 X385.384 Y734.433 E705.39587
G0 F5400 X385.384 Y731.233
G0 X380.384 Y731.233
G0 X380.384 Y734.433
G1 F2700 X380.384 Y714.433 E744.58453
G0 F5400 X380.384 Y717.633
G0 X375.384 Y717.633
G0 X375.384 Y714.433
G1 F2700 X375.384 Y734.433 E783.77319
G1 X375.384 Y735.683
G1 F1500 E777.27319
;MESH:Cube(12)
G0 F5400 X375.384 Y731.233
G0 X373.098 Y717.147
G0 X373.098 Y713.768
G0 X350.642 Y645.681
G0 X350.642 Y642.302
G0 X348.356 Y641.816
G0 X348.356 Y645.016
G1 F1500 E783.77319
G1 F2700 X348.356 Y625.016 E822.96185
G0 F5400 X348.356 Y628.216
G0 X343.356 Y628.216
G0 X343.356 Y625.016
G1 F2700 X343.356 Y645.016 E862.15051
G0 F5400 X343.356 Y641.816
G0 X338.356 Y641.816
G0 X338.356 Y645.016
G1 F2700 X338.356 Y625.016 E901.33917
G1 X338.356 Y623.766
G1 F1500 E894.83917
;MESH:Cube(10)
G0 F5400 X338.356 Y628.216
G0 X350.642 Y642.302
G0 X354.021 Y642.302
G0 X523.866 Y721.952
G0 X527.245 Y721.952
G0 X529.531 Y722.438
G0 X529.531 Y719.238
G1 F1500 E901.33917
G1 F2700 X529.531 Y739.238 E940.52783
G0 F5400 X529.531 Y736.038
G0 X534.531 Y736.038
G0 X534.531 Y739.238
G1 F2700 X534.531 Y719.163 E979.86344
G0 F5400 X534.531 Y721.699
G0 X539.531 Y721.699
G0 X539.531 Y719.163
G1 F2700 X539.531 Y739.313 E1019.34602
G0 F5400 X544.531 Y739.313
G1 F2700 X544.531 Y719.163 E1058.82859
G1 X544.531 Y717.913
;MESH:Cube(6)
G1 X545.184 Y718.499
G1 X545.184 Y738.574 E1098.16421
G0 F5400 X540.184 Y738.574
G1 F2700 X540.184 Y718.499 E1137.49983
G0 F5400 X540.184 Y721.699
G0 X535.184 Y721.699
G0 X535.184 Y718.499
G1 F2700 X535.184 Y738.574 E1176.83544
G0 F5400 X535.184 Y736.038
G0 X530.184 Y736.038
G0 X530.184 Y738.574
G1 F2700 X530.184 Y719.218 E1214.76223
G1 X530.184 Y717.968
G0 F5400 X530.184 Y722.438
G0 X532.968 Y722.358
G0 X547.014 Y721.669
G0 X550.184 Y718.499
G1 F2700 X550.184 Y738.574 E1254.09784
G1 X550.184 Y739.824
;MESH:Cube(3)
G0 F5400 X547.476 Y738.015
G0 X547.47 Y735.86
G0 X549.705 Y735.212
G1 F2700 X549.705 Y755.287 E1293.43346
G0 F5400 X549.705 Y752.087
G0 X544.705 Y752.087
G0 X544.705 Y755.287
G1 F2700 X544.705 Y735.212 E1332.76908
G0 F5400 X541.54 Y735.467
G0 X539.705 Y735.574
G0 X539.705 Y735.212
G1 F2700 X539.705 Y755.287 E1372.10469
G1 X539.705 Y756.537
G0 F5400 X539.705 Y752.087
G0 X537.905 Y739.258
G0 X534.705 Y739.258
G1 F2700 X534.705 Y735.212 E1380.03256
G1 F1500 E1373.53256
;MESH:Cube(9)
G0 F5400 X534.705 Y735.974
G0 X539.901 Y735.902
G0 X541.934 Y735.902
G0 X541.933 Y733.553
G0 X547.47 Y721.213
G0 X547.47 Y717.834
G0 X585.462 Y679.786
G0 X588.841 Y679.786
G0 X591.127 Y679.3
G0 X591.127 Y682.5
G1 F1500 E1380.03256
G1 F2700 X591.127 Y662.5 E1419.22122
G0 F5400 X591.127 Y665.7
G0 X596.127 Y665.7
G0 X596.127 Y662.5
G1 F2700 X596.127 Y682.5 E1458.40988
G0 F5400 X596.127 Y679.3
G0 X601.127 Y679.3
G0 X601.127 Y682.5
G1 F2700 X601.127 Y662.5 E1497.59854
G1 X601.127 Y661.25
G1 F1500 E1491.09854
;MESH:NONMESH
G0 F600 X601.127 Y661.25 Z7.5
G0 F5400 X601.127 Y665.7
G0 X588.841 Y665.214
G0 X585.462 Y665.214
G0 X318.995 Y462.141
G0 X315.616 Y462.141
G0 X303.33 Y448.055
G0 X303.33 Y444.855
;TIME_ELAPSED:120.203418
;LAYER:2
;TYPE:FILL
;MESH:Cube(8)
G1 F1500 E1497.59854
G1 F3600 X303.33 Y464.855 E1536.7872
G0 F7200 X303.33 Y461.655
G0 X308.33 Y461.655
G0 X308.33 Y464.855
G1 F3600 X308.33 Y444.855 E1575.97586
G0 F7200 X308.33 Y448.055
G0 X313.33 Y448.055
G0 X313.33 Y444.855
G92 E0
G1 F3600 X313.33 Y464.855 E39.18866
G1 X313.33 Y466.105
G1 F1500 E32.68866
;MESH:Cube(11)
G0 F7200 X313.33 Y461.655
G0 X315.61 Y456.673
G0 X318.995 Y456.673
G0 X424.335 Y456.673
G0 X427.72 Y456.673
G0 X430 Y456.673
G0 X430 Y459.873
G1 F1500 E39.18866
G1 F3600 X430 Y439.873 E78.37732
G0 F7200 X430 Y443.073
G0 X435 Y443.073
G0 X435 Y439.873
G1 F3600 X435 Y459.873 E117.56598
G0 F7200 X435 Y456.673
G0 X440 Y456.673
G0 X440 Y459.873
G1 F3600 X440 Y439.873 E156.75464
G1 X440 Y438.623
G1 F1500 E150.25464
;MESH:Cube(1)
G0 F7200 X440 Y443.073
G0 X442.286 Y457.159
G0 X445.665 Y457.159
G0 X554.194 Y494.935
G0 X557.573 Y494.935
G0 X559.859 Y495.421
G0 X559.859 Y492.221
G1 F1500 E156.75464
G1 F3600 X559.859 Y512.221 E195.9433
G0 F7200 X559.859 Y509.021
G0 X564.859 Y509.021
G0 X564.859 Y512.221
G1 F3600 X564.859 Y492.221 E235.13196
G0 F7200 X564.859 Y495.421
G0 X569.859 Y495.421
G0 X569.859 Y492.221
G1 F3600 X569.859 Y512.221 E274.32062
G1 X569.859 Y513.471
G1 F1500 E267.82062
;MESH:Cube(5)
G0 F7200 X569.859 Y509.021
G0 X557.573 Y509.507
G0 X557.573 Y512.886
G0 X546.07 Y593.009
G0 X546.07 Y596.388
G0 X543.784 Y596.874
G0 X543.784 Y593.674
G1 F1500 E274.32062
G1 F3600 X543.784 Y613.674 E313.50928
G0 F7200 X543.784 Y610.474
G0 X538.784 Y610.474
G0 X538.784 Y613.674
G1 F3600 X538.784 Y593.674 E352.69793
G0 F7200 X538.784 Y596.874
G0 X533.784 Y596.874
G0 X533.784 Y593.674
G1 F3600 X533.784 Y613.674 E391.88659
G1 X533.784 Y614.924
G1 F1500 E385.38659
;MESH:Cube
G0 F7200 X533.784 Y610.474
G0 X531.498 Y610.96
G0 X528.119 Y610.96
G0 X506.805 Y634.609
G0 X503.426 Y634.609
G0 X501.14 Y635.095
G0 X501.14 Y631.895
G1 F1500 E391.88659
G1 F3600 X501.14 Y651.895 E431.07525
G0 F7200 X501.14 Y648.695
G0 X496.14 Y648.695
G0 X496.14 Y651.895
G1 F3600 X496.14 Y631.895 E470.26391
G0 F7200 X496.14 Y635.095
G0 X491.14 Y635.095
G0 X491.14 Y631.895
G1 F3600 X491.14 Y651.895 E509.45257
G1 X491.14 Y653.145
G1 F1500 E502.95257
;MESH:Cube(4)
G0 F7200 X491.14 Y648.695
G0 X488.854 Y634.609
G0 X485.475 Y634.609
G0 X448.986 Y600.644
G0 X448.986 Y597.265
G0 X446.7 Y596.779
G0 X446.7 Y599.979
G1 F1500 E509.45257
G1 F3600 X446.7 Y579.979 E548.64123
G0 F7200 X446.7 Y583.179
G0 X441.7 Y583.179
G0 X441.7 Y579.979
G1 F3600 X441.7 Y599.979 E587.82989
G0 F7200 X441.7 Y596.779
G0 X436.7 Y596.779
G0 X436.7 Y599.979
G1 F3600 X436.7 Y579.979 E627.01855
G1 X436.7 Y578.729
G1 F1500 E620.51855
;MESH:Cube(2)
G0 F7200 X436.7 Y583.179
G0 X435 Y597.259
G0 X435 Y600.644
G0 X435 Y683.335
G0 X435 Y686.72
G0 X435 Y684
G1 F1500 E627.01855
G1 F3600 X435 Y704 E666.20721
G0 F7200 X435 Y700.8
G0 X430 Y700.8
G0 X430 Y704
G1 F3600 X430 Y684 E705.39587
G0 F7200 X430 Y687.2
G0 X440 Y687.2
G0 X440 Y684
G1 F3600 X440 Y704 E744.58453
G1 X440 Y705.25
G1 F1500 E738.08453
;MESH:Cube(7)
G0 F7200 X440 Y700.8
G0 X427.714 Y701.286
G0 X424.335 Y701.286
G0 X391.049 Y717.147
G0 X387.67 Y717.147
G0 X385.384 Y717.633
G0 X385.384 Y714.433
G1 F1500 E744.58453
G1 F3600 X385.384 Y734.433 E783.77319
G0 F7200 X385.384 Y731.233
G0 X380.384 Y731.233
G0 X380.384 Y734.433
G1 F3600 X380.384 Y714.433 E822.96185
G0 F7200 X380.384 Y717.633
G0 X375.384 Y717.633
G0 X375.384 Y714.433
G1 F3600 X375.384 Y734.433 E862.15051
G1 X375.384 Y735.683
G1 F1500 E855.65051
;MESH:Cube(12)
G0 F7200 X375.384 Y731.233
G0 X373.098 Y717.147
G0 X373.098 Y713.768
G0 X350.642 Y645.681
G0 X350.642 Y642.302
G0 X348.356 Y641.816
G0 X348.356 Y645.016
G1 F1500 E862.15051
G1 F3600 X348.356 Y625.016 E901.33917
G0 F7200 X348.356 Y628.216
G0 X343.356 Y628.216
G0 X343.356 Y625.016
G1 F3600 X343.356 Y645.016 E940.52783
G0 F7200 X343.356 Y641.816
G0 X338.356 Y641.816
G0 X338.356 Y645.016
G1 F3600 X338.356 Y625.016 E979.71649
